static/media/all-icons/optimised-icons/gf-19.svg

<?xml version="1.0" encoding="UTF-8"?>
<svg width="107px" height="26px" viewBox="0 0 107 26" version="1.1" xmlns="http://www.w3.org/2000/svg" xmlns:xlink="http://www.w3.org/1999/xlink">
    <!-- Generator: Sketch 51.3 (57544) - http://www.bohemiancoding.com/sketch -->
    <title>gf-19</title>
    <desc>Created with Sketch.</desc>
    <defs></defs>
    <g id="Page-1" stroke="none" stroke-width="1" fill="none" fill-rule="evenodd">
        <g id="gf-19" fill="#fff">
            <path d="M1.43231,25.9355 L2.9512,18.6476 L0,18.6476 L0,16.099 L3.47443,16.099 L4.76746,9.88808 L0,9.88808 L0,7.33953 L5.2907,7.33953 L6.80959,0 L9.42953,0 L7.91064,7.33953 L13.4103,7.33953 L14.9291,0 L17.566,0 L16.0471,7.33953 L19.068,7.33953 L19.068,9.88808 L15.5239,9.88808 L14.2139,16.099 L19.068,16.099 L19.068,18.6476 L13.6888,18.6476 L12.1699,25.9355 L9.55187,25.9355 L11.0538,18.6476 L5.56926,18.6476 L4.05037,25.9355 L1.43231,25.9355 Z M6.09437,16.099 L11.5771,16.099 L12.887,9.88808 L7.38552,9.88808 L6.09437,16.099 Z" id="Shape" fill-rule="nonzero"></path>
            <path d="M21.3457,13.2455 C21.3457,5.71235 27.0317,0.491699 33.8977,0.491699 C40.2631,0.491699 43.8749,4.13565 45.1623,7.84967 L41.5147,9.28622 C40.2989,6.06273 38.0459,3.75023 33.8262,3.75023 C29.4276,3.75023 25.1721,6.97372 25.1721,13.2105 C25.1721,19.3071 28.6766,22.8109 33.6831,22.8109 C38.5108,22.8109 41.1929,19.5874 41.4074,16.6442 L32.7534,16.6442 L32.7534,13.4207 L45.0908,13.4207 L45.0908,25.5088 L41.622,25.5088 C41.622,23.6167 42.3372,21.6546 43.0167,20.2881 L41.3359,20.2881 C40.6565,22.1101 38.5108,25.9993 32.6461,25.9993 C26.0304,26.0012 21.3457,21.094 21.3457,13.2455 Z" id="Shape" fill-rule="nonzero"></path>
            <polygon id="Shape" fill-rule="nonzero" points="50.9912 0.980957 69.1934 0.980957 69.1934 4.20445 54.5673 4.20445 54.5673 11.9829 66.0822 11.9829 66.0822 15.1713 54.5673 15.1713 54.5673 25.5075 50.9912 25.5075"></polygon>
            <path d="M86.7979592,22.2228469 L86.7979592,25.6378418 L73.7933827,25.6378418 L73.7933827,22.2228469 L78.5191837,22.2228469 L78.5191837,4.76842857 C78.33521,5.04438913 78.0305081,5.34909102 77.6050689,5.68254337 C77.1796297,6.01599571 76.702455,6.33794488 76.1735306,6.64840051 C75.6446062,6.95885614 75.0984424,7.21756529 74.535023,7.42453571 C73.9716035,7.63150614 73.4599343,7.7349898 73,7.7349898 L73,4.2165102 C73.6209113,4.2165102 74.2533114,4.04978653 74.8972194,3.71633418 C75.5411274,3.38288184 76.1275348,3.01493994 76.6564592,2.61249745 C77.1853836,2.21005496 77.6223146,1.83636397 77.9672653,1.49141327 C78.312216,1.14646256 78.496187,0.950993427 78.5191837,0.905 L82.4171071,0.905 L82.4171071,22.2228469 L86.7979592,22.2228469 Z M89.0056327,9.45973469 C89.0056327,8.26390559 89.2355963,7.1485817 89.6955306,6.11372959 C90.1554649,5.07887748 90.7821159,4.1820191 91.5755026,3.42312755 C92.3688892,2.664236 93.3059912,2.06633042 94.3868367,1.62939286 C95.4676823,1.1924553 96.6289989,0.973989796 97.8708214,0.973989796 C99.2276275,0.973989796 100.457933,1.22120076 101.561776,1.7156301 C102.665618,2.21005944 103.60272,2.92294687 104.37311,3.85431378 C105.1435,4.78568068 105.741405,5.91825183 106.166844,7.25206122 C106.592284,8.58587061 106.805,10.1036309 106.805,11.8053878 C106.805,14.1510525 106.586534,16.2034784 106.149597,17.962727 C105.712659,19.7219756 105.086008,21.1994923 104.269625,22.3953214 C103.453242,23.5911505 102.470147,24.4880089 101.320311,25.0859235 C100.170476,25.683838 98.8941771,25.9827908 97.4913776,25.9827908 C95.9046043,25.9827908 94.4615822,25.620598 93.1622679,24.8962015 C91.8629535,24.1718051 90.8108697,23.1542157 90.0059847,21.8434031 L92.2481531,19.49775 C92.7770775,20.463612 93.5129613,21.2282412 94.4558265,21.7916607 C95.3986918,22.3550802 96.4220302,22.6367857 97.5258724,22.6367857 C99.250626,22.6367857 100.630408,21.9124001 101.66526,20.4636071 C102.700112,19.0148142 103.229029,16.9681374 103.252026,14.3235153 C102.769095,15.3583674 102.015963,16.1747385 100.99261,16.7726531 C99.9692559,17.3705676 98.8021902,17.6695204 97.4913776,17.6695204 C96.2955484,17.6695204 95.1802246,17.456804 94.1453724,17.0313648 C93.1105203,16.6059256 92.213662,16.0252673 91.4547704,15.2893724 C90.6958789,14.5534776 90.0979733,13.6853647 89.6610357,12.6850077 C89.2240982,11.6846506 89.0056327,10.6095704 89.0056327,9.45973469 Z M97.8363265,4.18201531 C97.1234284,4.18201531 96.4565337,4.31999352 95.8356224,4.59595408 C95.2147112,4.87191465 94.6685474,5.25135473 94.1971148,5.73428571 C93.7256822,6.2172167 93.3519912,6.77487864 93.0760306,7.40728827 C92.80007,8.03969789 92.6620918,8.71234167 92.6620918,9.4252398 C92.6620918,10.1381379 92.80007,10.8050326 93.0760306,11.4259439 C93.3519912,12.0468551 93.7256822,12.5930189 94.1971148,13.0644515 C94.6685474,13.5358842 95.2204603,13.9095752 95.8528699,14.1855357 C96.4852795,14.4614963 97.1579233,14.5994745 97.8708214,14.5994745 C98.5837196,14.5994745 99.2563633,14.4614963 99.888773,14.1855357 C100.521183,13.9095752 101.073095,13.5416333 101.544528,13.081699 C102.015961,12.6217647 102.389652,12.075601 102.665612,11.4431913 C102.941573,10.8107817 103.079551,10.1496361 103.079551,9.45973469 C103.079551,8.74683657 102.941573,8.0684437 102.665612,7.42453571 C102.389652,6.78062773 102.010212,6.2172167 101.527281,5.73428571 C101.04435,5.25135473 100.486688,4.87191465 99.8542781,4.59595408 C99.2218684,4.31999352 98.5492247,4.18201531 97.8363265,4.18201531 Z" id="19-copy"></path>
        </g>
    </g>
</svg>

<svg width="107" height="26" xmlns="http://www.w3.org/2000/svg"><g fill="#fff" fill-rule="evenodd"><path d="m1.432 25.936 1.52-7.288H0v-2.549h3.474l1.293-6.21H0v-2.55h5.29L6.81 0h2.62L7.91 7.34h5.5L14.93 0h2.636l-1.519 7.34h3.021v2.548h-3.544l-1.31 6.211h4.854v2.549h-5.38l-1.518 7.288H9.552l1.502-7.288H5.569L4.05 25.936H1.432Zm4.662-9.837h5.483l1.31-6.21H7.386l-1.292 6.21ZM21.346 13.245c0-7.533 5.686-12.753 12.552-12.753 6.365 0 9.977 3.644 11.264 7.358l-3.647 1.436c-1.216-3.223-3.47-5.536-7.689-5.536-4.398 0-8.654 3.224-8.654 9.46 0 6.097 3.505 9.6 8.511 9.6 4.828 0 7.51-3.223 7.724-6.166h-8.654v-3.223h12.338v12.088h-3.469c0-1.892.715-3.854 1.395-5.22h-1.681c-.68 1.821-2.825 5.71-8.69 5.71-6.616.002-11.3-4.905-11.3-12.753ZM50.991.981h18.202v3.223H54.567v7.779h11.515v3.188H54.567v10.337h-3.576z" fill-rule="nonzero"/><path d="M86.798 22.223v3.415H73.793v-3.415h4.726V4.768c-.184.276-.488.581-.914.915-.425.333-.903.655-1.431.965-.53.31-1.076.57-1.639.777-.563.207-1.075.31-1.535.31V4.217c.62 0 1.253-.167 1.897-.5.644-.334 1.23-.702 1.76-1.105.528-.402.965-.776 1.31-1.12.345-.346.53-.541.552-.587h3.898v21.318h4.381ZM89.006 9.46c0-1.196.23-2.311.69-3.346a8.405 8.405 0 0 1 1.88-2.69 8.78 8.78 0 0 1 2.81-1.795 9.207 9.207 0 0 1 3.485-.655c1.357 0 2.587.247 3.69.742a7.67 7.67 0 0 1 2.812 2.138c.77.932 1.368 2.064 1.794 3.398.425 1.334.638 2.852.638 4.553 0 2.346-.218 4.398-.655 6.158-.437 1.759-1.064 3.236-1.88 4.432-.817 1.196-1.8 2.093-2.95 2.69-1.15.599-2.426.898-3.829.898-1.586 0-3.03-.362-4.329-1.087-1.299-.724-2.351-1.742-3.156-3.053l2.242-2.345a5.96 5.96 0 0 0 2.208 2.294 5.878 5.878 0 0 0 3.07.845c1.725 0 3.104-.725 4.14-2.173 1.034-1.45 1.563-3.496 1.586-6.14-.483 1.034-1.236 1.85-2.26 2.449-1.023.598-2.19.897-3.5.897a8.713 8.713 0 0 1-3.347-.639 8.416 8.416 0 0 1-2.69-1.742 8.107 8.107 0 0 1-1.794-2.604 7.969 7.969 0 0 1-.655-3.225Zm8.83-5.278a4.87 4.87 0 0 0-2 .414 5.246 5.246 0 0 0-1.639 1.138 5.55 5.55 0 0 0-1.121 1.673 4.99 4.99 0 0 0-.414 2.018c0 .713.138 1.38.414 2a5.333 5.333 0 0 0 2.777 2.76 4.99 4.99 0 0 0 2.018.414 4.99 4.99 0 0 0 2.018-.413 5.49 5.49 0 0 0 1.656-1.104 5.126 5.126 0 0 0 1.12-1.639 4.908 4.908 0 0 0 .415-1.983c0-.713-.138-1.392-.414-2.035a5.34 5.34 0 0 0-1.139-1.69 5.396 5.396 0 0 0-1.673-1.139 4.99 4.99 0 0 0-2.018-.414Z"/></g></svg>
